X: 40916
T: Trip To Athlone, The
R: jig
M: 6/8
K: Dmajor
ABA DED|dcA AGE|ABA ABc|dAB cde|
ABA ~D3|dcA AGE|GFG Ade|1 fdc d2c:|2 fdc d2e||
|:f2d edc|Add cde|fed edc|ABc def|
~g3 age|dcA AGE|GFG Ade|1 fdc d2e:|2 fdc d2c||

